assets/icons/link.svg

<svg width="24" height="24" viewBox="0 0 41 32" fill="none" xmlns="http://www.w3.org/2000/svg">
<g clip-path="url(#clip0_50_282)">
<path d="M37.7378 2.58812C35.9411 0.8625 33.7157 0 31.4335 0C29.1513 0 26.8717 0.8625 25.1317 2.58812L22.3981 5.29812C23.3507 5.79887 24.256 6.39687 25.0402 7.17438C25.2386 7.371 25.4121 7.58175 25.5914 7.78925L27.9845 5.41675C28.9054 4.50313 30.078 4 31.4335 4C32.7366 4 33.9615 4.50294 34.8826 5.41625C35.8037 6.32938 36.3112 7.54375 36.3112 8.83562C36.3112 10.1275 35.8037 11.3419 34.8826 12.255L26.4789 20.5863C25.5641 21.4438 24.3348 22 23.0361 22C21.7374 22 20.508 21.497 19.587 20.5837C18.6609 19.6687 18.0998 18.4563 18.0998 17.1625C18.0998 15.8688 18.6071 14.6562 19.5283 13.7431L19.8083 13.525C19.6759 13.2812 19.5372 13.0312 19.3354 12.8313C18.7933 12.2937 18.0809 12 17.3117 12C16.5596 12 15.8554 12.2915 15.3189 12.8106C13.3829 16.1831 13.8292 20.5356 16.7305 23.4106C18.4717 25.1375 20.7539 26 23.0361 26C25.317 26 27.5979 25.1375 29.3379 23.4119L37.7378 15.0813C39.5314 13.3031 40.4008 10.9556 40.3459 8.625C40.2911 6.38125 39.4274 4.26 37.7378 2.58812ZM14.7522 24.2125L12.3628 26.5812C11.4424 27.4437 10.213 28 8.91435 28C7.61124 28 6.3863 27.4971 5.46524 26.5837C4.54417 25.6706 4.03667 24.4563 4.03667 23.1644C4.03667 21.8725 4.54411 20.6581 5.46524 19.745L13.8689 11.4137C14.7837 10.5 15.9563 10 17.3117 10C18.6672 10 19.8398 10.503 20.7608 11.4163C21.6825 12.3294 22.1894 13.5437 22.1894 14.8356C22.1894 16.1275 21.6821 17.3419 20.7608 18.255L20.5396 18.475C20.6716 18.7212 20.8055 18.9684 21.0102 19.1719C21.5546 19.7062 22.2733 20 23.0361 20C23.7882 20 24.4924 19.7085 25.0289 19.1894C26.965 15.8169 26.5186 11.4644 23.6173 8.58937C21.8193 6.8625 19.5939 6 17.3117 6C15.0296 6 12.7537 6.8625 11.0137 8.5875L2.61063 16.9188C0.87063 18.6438 0 20.905 0 23.1663C-6.30431e-06 25.4275 0.87 27.6888 2.61063 29.4144C4.35063 31.1375 6.63217 32 8.91435 32C11.1953 32 13.4762 31.1375 15.2162 29.4119L17.9497 26.7019C16.9972 26.2011 16.0918 25.6031 15.3076 24.8256C15.1052 24.6313 14.935 24.4187 14.7522 24.2125Z" fill="black"/>
</g>
<defs>
<clipPath id="clip0_50_282">
<rect width="40.3478" height="32" fill="white"/>
</clipPath>
</defs>
</svg>

<?xml version="1.0" encoding="UTF-8"?>
<svg width="24" height="24" fill="none" viewBox="0 0 41 32" xmlns="http://www.w3.org/2000/svg">
<g clip-path="url(#a)">
<path d="m37.738 2.5881c-1.7967-1.7256-4.0221-2.5881-6.3043-2.5881s-4.5618 0.8625-6.3018 2.5881l-2.7336 2.71c0.9526 0.50075 1.8579 1.0988 2.6421 1.8763 0.1984 0.19662 0.3719 0.40737 0.5512 0.61487l2.3931-2.3725c0.9209-0.91362 2.0935-1.4168 3.449-1.4168 1.3031 0 2.528 0.50294 3.4491 1.4162 0.9211 0.91313 1.4286 2.1275 1.4286 3.4194 0 1.2919-0.5075 2.5063-1.4286 3.4194l-8.4037 8.3313c-0.9148 0.8575-2.1441 1.4137-3.4428 1.4137s-2.5281-0.503-3.4491-1.4163c-0.9261-0.915-1.4872-2.1274-1.4872-3.4212 0-1.2937 0.5073-2.5063 1.4285-3.4194l0.28-0.2181c-0.1324-0.2438-0.2711-0.4938-0.4729-0.6937-0.5421-0.5376-1.2545-0.8313-2.0237-0.8313-0.7521 0-1.4563 0.2915-1.9928 0.8106-1.936 3.3725-1.4897 7.725 1.4116 10.6 1.7412 1.7269 4.0234 2.5894 6.3056 2.5894 2.2809 0 4.5618-0.8625 6.3018-2.5881l8.3999-8.3306c1.7936-1.7782 2.663-4.1257 2.6081-6.4563-0.0548-2.2438-0.9185-4.365-2.6081-6.0369zm-22.986 21.624l-2.3894 2.3687c-0.9204 0.8625-2.1498 1.4188-3.4484 1.4188-1.3031 0-2.528-0.5029-3.4491-1.4163-0.92107-0.9131-1.4286-2.1274-1.4286-3.4193s0.50744-2.5063 1.4286-3.4194l8.4037-8.3313c0.9148-0.9137 2.0874-1.4137 3.4428-1.4137 1.3555 0 2.5281 0.503 3.4491 1.4163 0.9217 0.9131 1.4286 2.1274 1.4286 3.4193s-0.5073 2.5063-1.4286 3.4194l-0.2212 0.22c0.132 0.2462 0.2659 0.4934 0.4706 0.6969 0.5444 0.5343 1.2631 0.8281 2.0259 0.8281 0.7521 0 1.4563-0.2915 1.9928-0.8106 1.9361-3.3725 1.4897-7.725-1.4116-10.6-1.798-1.7269-4.0234-2.5894-6.3056-2.5894-2.2821 0-4.558 0.8625-6.298 2.5875l-8.4031 8.3313c-1.74 1.725-2.6106 3.9862-2.6106 6.2475-6.3043e-6 2.2612 0.87 4.5225 2.6106 6.2481 1.74 1.7231 4.0215 2.5856 6.3037 2.5856 2.281 0 4.5618-0.8625 6.3018-2.5881l2.7335-2.71c-0.9525-0.5008-1.8579-1.0988-2.6421-1.8763-0.2024-0.1943-0.3726-0.4069-0.5554-0.6131z" fill="#000"/>
</g>
<defs>
<clipPath id="a">
<rect width="40.348" height="32" fill="#fff"/>
</clipPath>
</defs>
</svg>
